X:12038
T:Lannigan's Ball
R:Jig
C:Trad.
O:Ireland
Z:Paul Hardy's Session Tunebook 2022 (see www.paulhardy.net). Creative Commons cc by-nc-sa licenced.
M:6/8
L:1/8
Q:3/8=100
K:Edor
D|"Em"EFE G2A|B2A Bcd|"D"DED F2G|ABA AFD|
"Em"EFE G2A|B2A Bcd|edB "Am"=cBA|"Em"BGE E2:|
|:d|"Em"e2f gfe|"D"fag fed|"Em"e2f gfe|"Bm"fdB B2d|
"Em"e2f gfg|"Am"eag "D"fed|"Em"edB "Am"=cBA|"Em"BGE E2:|

